X:1
T:Partition sans titre
C:Compositeur / Arrangeur
L:1/8
M:4/4
I:linebreak $
K:G
V:1 treble nm="Violon" snm="Vln."
V:1
"G" g2 gf gedc | BGAc BG G2 | GBdB"C" Gcec |"D" DFAc"G" BG G2 ::"G" g3 a bgdg | bgdg b2 bg | %6
"D" a3 b afdf |1 a3 b afdf :|2"G" g2 Pf2 eddB |"C" cBAc"G" BG G2 |] %10
